gruvbox_icons/symbolic/categories/emoji-activities-symbolic.svg

<?xml version="1.0" encoding="UTF-8"?>
<svg height="16px" viewBox="0 0 16 16" width="16px" xmlns="http://www.w3.org/2000/svg">
    <path d="m 8 0 c -4.40625 0 -8 3.59375 -8 8 s 3.59375 8 8 8 s 8 -3.59375 8 -8 s -3.59375 -8 -8 -8 z m 0 2 c 0.039062 0 0.074219 0.003906 0.113281 0.007812 c -0.335937 1.648438 0.167969 3.394532 1.429688 4.601563 c 1.203125 1.15625 2.875 1.601563 4.453125 1.285156 c 0 0.035157 0.003906 0.070313 0.003906 0.105469 c 0 3.324219 -2.675781 6 -6 6 c -0.039062 0 -0.078125 -0.003906 -0.113281 -0.007812 c 0.320312 -1.582032 -0.128907 -3.257813 -1.28125 -4.460938 c -0.722657 -0.746094 -1.636719 -1.234375 -2.609375 -1.429688 c -0.246094 -0.050781 -0.492188 -0.082031 -0.742188 -0.09375 c -0.414062 -0.023437 -0.835937 0.011719 -1.246094 0.097657 c -0.003906 -0.035157 -0.007812 -0.070313 -0.007812 -0.105469 c 0 -3.324219 2.675781 -6 6 -6 z m 1.113281 0.105469 c 2.429688 0.453125 4.332031 2.355469 4.78125 4.785156 c -1.289062 0.296875 -2.671875 -0.050781 -3.660156 -1.003906 c -1.035156 -0.988281 -1.433594 -2.429688 -1.121094 -3.78125 z m -5.90625 6.898437 c 0.992188 0.050782 1.953125 0.472656 2.675781 1.222656 c 0.949219 0.988282 1.304688 2.371094 1.007813 3.667969 c -2.433594 -0.453125 -4.335937 -2.355469 -4.785156 -4.789062 c 0.363281 -0.082031 0.734375 -0.121094 1.101562 -0.101563 z m 0 0" fill="#2e3436"/>
</svg>

<svg xmlns="http://www.w3.org/2000/svg" width="16" height="16" version="1.1">
 <path style="fill:#cdd3e0" d="M 7.9999998,0 C 3.5940002,0 1.5e-7,3.594 1.5e-7,8 c 0,4.406 3.59399995,8 7.99999965,8 C 12.406,16 16,12.406 16,8 16,3.594 12.406,0 7.9999998,0 Z m 0,2 c 0.038,0 0.075,0.005 0.1130001,0.006 a 4.993,4.993 0 0 0 1.428,4.604 A 4.999,4.999 0 0 0 13.994,7.893 C 13.994,7.929 14,7.963 14,8 c 0,3.326 -2.674,6 -6.0000002,6 -0.039,0 -0.076,-0.005 -0.115,-0.006 a 4.992,4.992 0 0 0 -1.2809997,-4.46 4.994,4.994 0 0 0 -3.35,-1.528 4.992,4.992 0 0 0 -1.248,0.1 c 0,-0.036 -0.006,-0.07 -0.006,-0.106 0,-3.326 2.674,-6 5.9999997,-6 z M 9.1129999,2.105 A 5.977,5.977 0 0 1 13.895,6.891 3.99,3.99 0 0 1 10.232,5.889 3.987,3.987 0 0 1 9.1129999,2.105 Z M 3.2050001,9.004 a 3.99,3.99 0 0 1 3.684,4.89 5.976,5.976 0 0 1 -4.784,-4.789 c 0.364,-0.083 0.734,-0.12 1.1,-0.101 z"/>
</svg>
